assets/icons/PointIcon.svg

<svg width="16" height="16" viewBox="0 0 16 16" fill="none" xmlns="http://www.w3.org/2000/svg">
<path d="M7.99976 0C4.75204 0 2.10953 2.64251 2.10953 5.89056C2.10953 6.73777 2.28293 7.54667 2.62467 8.29499C4.09739 11.5176 6.921 14.9201 7.75152 15.886C7.81374 15.9582 7.90446 15.9998 7.99992 15.9998C8.09538 15.9998 8.1861 15.9582 8.24832 15.886C9.07851 14.9203 11.9021 11.518 13.3753 8.29499C13.7172 7.54667 13.8905 6.73777 13.8905 5.89056C13.8901 2.64251 11.2476 0 7.99976 0ZM7.99976 8.95013C6.31269 8.95013 4.94002 7.57746 4.94002 5.89039C4.94002 4.20317 6.31269 2.83049 7.99976 2.83049C9.68682 2.83049 11.0595 4.20317 11.0595 5.89039C11.0597 7.57746 9.68698 8.95013 7.99976 8.95013Z" fill="#029F59"/>
</svg>

<svg width="16" height="16" fill="none" xmlns="http://www.w3.org/2000/svg"><path d="M8 0a5.897 5.897 0 0 0-5.89 5.89c0 .848.173 1.657.515 2.405 1.472 3.223 4.296 6.625 5.127 7.591a.328.328 0 0 0 .496 0c.83-.966 3.654-4.368 5.127-7.591a5.743 5.743 0 0 0 .515-2.404A5.898 5.898 0 0 0 8 0Zm0 8.95a3.063 3.063 0 0 1-3.06-3.06A3.063 3.063 0 0 1 8 2.83a3.063 3.063 0 0 1 3.06 3.06A3.063 3.063 0 0 1 8 8.95Z" fill="#029F59"/></svg>
